<?xml version="1.0" encoding="UTF-8"?>
<map version="1.10" tiledversion="1.12.2" orientation="orthogonal" renderorder="right-down" width="16" height="14" tilewidth="16" tileheight="16" infinite="0" nextlayerid="2" nextobjectid="1">
 <tileset firstgid="1" name="mario_tiles" tilewidth="16" tileheight="16" tilecount="3" columns="3">
  <image source="tileset.png" width="48" height="16"/>
  <tile id="0">
   <properties>
    <property name="type" value="ground"/>
   </properties>
  </tile>
  <tile id="1">
   <properties>
    <property name="type" value="question_block"/>
   </properties>
  </tile>
  <tile id="2">
   <properties>
    <property name="type" value="brick_block"/>
   </properties>
  </tile>
 </tileset>
 <layer id="1" name="Level" width="16" height="14" offsetx="0.541112" offsety="1.08222">
  <data encoding="csv">
0,0,0,0,0,0,0,0,0,0,0,0,0,0,0,0,
0,0,0,0,0,0,0,0,0,0,0,0,0,0,0,0,
0,0,0,0,0,0,0,0,0,0,0,0,0,0,0,0,
0,0,0,0,0,0,0,0,0,0,0,0,0,0,0,0,
3,0,0,0,0,0,0,0,0,0,0,0,0,0,0,0,
3,0,0,0,0,0,0,0,0,0,0,0,0,0,0,0,
2,3,0,0,0,0,3,3,3,3,3,3,3,3,0,0,
0,0,0,0,0,0,0,0,0,0,0,0,0,0,0,0,
0,0,0,0,0,0,0,0,0,0,0,0,0,0,0,0,
1,1,1,1,1,1,1,1,1,1,1,1,1,1,1,1,
1,1,1,1,1,1,1,1,1,1,1,1,1,1,1,1,
1,1,1,1,1,1,1,1,1,1,1,1,1,1,1,1,
1,1,1,1,1,1,1,1,1,1,1,1,1,1,1,1,
1,1,1,1,1,1,1,1,1,1,1,1,1,1,1,1
</data>
 </layer>
</map>
